images/apple-monitor-1-icon.svg

<?xml version="1.0" encoding="UTF-8"?>
<svg width="84px" height="75px" viewBox="0 0 84 75" version="1.1" xmlns="http://www.w3.org/2000/svg" xmlns:xlink="http://www.w3.org/1999/xlink">
    <!-- Generator: sketchtool 41.2 (35397) - http://www.bohemiancoding.com/sketch -->
    <title>7FD75E98-47A5-4E79-A62D-7FDCB581C2B6</title>
    <desc>Created with sketchtool.</desc>
    <defs></defs>
    <g id="Comps" stroke="none" stroke-width="1" fill="none" fill-rule="evenodd">
        <g id="Colonial-Life" transform="translate(-225.000000, -2497.000000)" fill="#FFFFFF">
            <g id="Stats" transform="translate(-4.000000, 527.000000)">
                <g id="Colonial-Life-Stats" transform="translate(1.000000, 1110.000000)">
                    <g id="Group-5" transform="translate(106.000000, 778.000000)">
                        <g id="apple-monitor(1)" transform="translate(122.000000, 82.000000)">
                            <g id="Capa_1">
                                <path d="M80.0850788,0.108859223 L2.92482601,0.108859223 C1.31199338,0.108859223 0,1.42354369 0,3.03968447 L0,52.4450243 C0,52.4458617 0.00167132915,52.4475364 0.00167132915,52.4492112 L0.00167132915,59.9898058 C0.00167132915,60.9452549 0.773825396,61.717318 1.72564735,61.717318 L32.2808868,61.717318 C32.1271246,65.1137257 31.3766978,71.9316626 27.8577142,73.4263835 C27.8577142,73.4263835 26.4914027,74.6966869 30.3137324,74.6966869 L36.856986,74.6966869 L45.8754781,74.6966869 L52.4187317,74.6966869 C56.2385545,74.6966869 54.8739143,73.4263835 54.8739143,73.4263835 C51.3549307,71.9316626 50.6053396,65.1128883 50.4507417,61.717318 L81.3185197,61.717318 C82.272013,61.717318 83.0015482,60.9444175 83.0015482,59.9898058 L83.0015482,52.5270874 C83.0032195,52.4994539 83.0099048,52.4743325 83.0099048,52.4450243 L83.0099048,3.03968447 C83.0099048,1.42521845 81.6979114,0.108859223 80.0850788,0.108859223 Z M39.4851511,55.7945388 C39.4851511,54.6774757 40.3893402,53.7705947 41.5057881,53.7705947 C42.6205646,53.7705947 43.5247537,54.6766383 43.5247537,55.7945388 C43.5247537,56.9124393 42.6205646,57.818483 41.5057881,57.818483 C40.3893402,57.818483 39.4851511,56.9124393 39.4851511,55.7945388 Z M80.5029111,50.4880704 L2.50699372,50.4880704 L2.50699372,3.03968447 C2.50699372,2.80856796 2.69501825,2.62099515 2.92482601,2.62099515 L80.0850788,2.62099515 C80.3148866,2.62099515 80.5029111,2.80856796 80.5029111,3.03968447 L80.5029111,50.4880704 Z" id="Shape"></path>
                            </g>
                        </g>
                    </g>
                </g>
            </g>
        </g>
    </g>
</svg>

<svg width="84" height="75" viewBox="0 0 84 75" xmlns="http://www.w3.org/2000/svg"><title>7FD75E98-47A5-4E79-A62D-7FDCB581C2B6</title><path d="M80.085.109H2.925A2.931 2.931 0 0 0 0 3.039v49.406l.002.004v7.54c0 .956.772 1.728 1.724 1.728H32.28c-.154 3.397-.904 10.215-4.423 11.71 0 0-1.367 1.27 2.456 1.27h22.105c3.82 0 2.455-1.27 2.455-1.27-3.52-1.495-4.269-8.314-4.423-11.71h30.868c.953 0 1.683-.773 1.683-1.727v-7.463c.001-.028.008-.053.008-.082V3.04A2.932 2.932 0 0 0 80.085.109zm-40.6 55.686c0-1.118.904-2.024 2.02-2.024s2.02.906 2.02 2.024a2.022 2.022 0 0 1-2.02 2.023 2.022 2.022 0 0 1-2.02-2.023zm41.018-5.307H2.507V3.04a.42.42 0 0 1 .418-.419h77.16a.42.42 0 0 1 .418.419v47.448z" fill="#FFF" fill-rule="evenodd"/></svg>
